X:8166
T:Nichts besser kann auf Erden sein
C:Valentin Hau\ssmann
O:Germany
N:1602
Z:Transcribed by Frank Nordberg - http://www.musicaviva.com
F:http://abc.musicaviva.com/tunes/haussmann-valentin/haussmann-nichts-4h.abc
M:C|
L:1/4
K:Gmix
V:1
d2dd|^cd B3/2A//G//|A2BB-|BA/G/Ad-|dded-|d^cdA|e3/2f/g2|z2zB|edBc|BGA2|z4|z4|zddB|d3e|f2e2|zdde|f3f|e2d2|d2z2|zeee|f2d2|d4|d4|]
V:2
z4|z4|zddd|^c2d2|B2cB-|BA/G/A2|zGcd|e2dg-|gfe2-|ed/c/dA|A^FA2-|ABc2|B2zd|BBAc-|cBc2|zBAc|c2d2|c2A2|BBBB|c3c|c3B|AGA2|B4|]
V:3
z4|z4|z2zG|GG^F2|G2E^F|GE^F2|GE2D|GAB2|A2G2-|GG^F2|zA^FF|EG2^F|G2z2|zGA/AG/|AFG2|zG^FG|A2_B2|G3^F|G4|zGGG|A3G|^FG2F|G4|]
V:4
z4|zGGG|^F2G2|EED2|zG,CD|E2D2|C3B,|C2zG,|CDEC|EED2|zDDD|CB,A,2|G,2zG|GGFE|D2C2|zG,DC|F2_B,2|C2D2|B,4|zCCC|F,2G,2|D4|G,4|]
W:
W:
W:  From Musica Viva - http://www.musicaviva.com
W:  the Internet center for free sheet music downloads.
